X: 11342
T: JENNY SUTTON
Q: "Reel."
%R: reel
B: W. Hamilton "Universal Tune-Book" Vol. 1 Glasgow 1844 p.134 #2
S: http://imslp.org/wiki/Hamilton's_Universal_Tune-Book_(Various)
Z: 2016 John Chambers <jc:trillian.mit.edu>
M: C
L: 1/8
K: Bb
%%stretchstaff 0
% - - - - - - - - - - - - - - - - - - - - - - - - -
|:\
B/B/B Bd fdfd | B/B/B Bd ecAc |\
B/B/B Bd fdfd | fgec d2B2 :|\
bBbB aBaB | gabg fdcB |
bBbB aBaB | gabg g2f2 |\
bdGb acFa | gBeg fdcB |\
B/B/B Bd fdge | dbca b2B2 |]
% - - - - - - - - - - - - - - - - - - - - - - - - -

%%sep 1 1 500
%%sep 1 1 500

